X:36
T:Coleraine Jig, The
R:jig
D:De Dannan
Z:id:hn-jig-36
M:6/8
K:Bm
FBB Bcd|cff ~f2e|dcB Bcd|cFF ~F2E|FBB Bcd|cff ~f2e|dcB ^ABc|1 ~B3 B2A:|2 ~B3 B2c||
|:~d3 dcB|caa a2^a|bfe dcB|^ABc F^G^A|~B3 cBc|def gfe|dcB ^ABc|1 ~B3 B2c:|2 ~B3 B2A||
